ci/cib-quarkus.svg

<svg xmlns="http://www.w3.org/2000/svg" viewBox="0 0 32 32" height="1em" width="1em">
  <path d="m17.052 21.287 5.161-2.984v-5.959l-5.161 2.979zm.489.281 4.672 2.697v-5.391l-4.672 2.699zm4.391-10.281V5.896L17.26 8.588l4.672 2.693zm-5.161-2.412-5.167 2.98 5.167 2.984 5.161-2.984zm-.495-.287-4.672-2.692v5.391zm6.432 4.043v5.385l4.667-2.693-4.667-2.697zm-6.219 8.656v-5.964l-5.167-2.979v5.959zm-5.661-8.662-4.667 2.697 4.667 2.693zm.495 6.25v5.391l4.672-2.697zM26.677.177H5.306C2.385.177-.001 2.536-.001 5.416v21.111c0 2.885 2.385 5.239 5.307 5.239h14.631l-3.948-9.473-2.864 5.984H5.306c-.957 0-1.771-.803-1.771-1.749V5.417c0-.943.813-1.744 1.771-1.744h21.371c.959 0 1.771.801 1.771 1.744v21.111c0 .947-.812 1.749-1.771 1.749h-4.636l1.453 3.489h3.183c2.916 0 5.307-2.353 5.307-5.239V5.416c0-2.88-2.391-5.239-5.307-5.239z"/>
</svg>

<svg xmlns="http://www.w3.org/2000/svg" viewBox="0 0 32 32" height="1em" width="1em">
  <path d="M17.052 21.287l5.161-2.984v-5.959l-5.161 2.979zM17.541 21.568l4.672 2.697v-5.391l-4.672 2.699zM21.932 11.287v-5.391l-4.672 2.692 4.672 2.693zM16.771 8.875l-5.167 2.98 5.167 2.984 5.161-2.984zM16.276 8.588l-4.672-2.692v5.391zM22.708 12.631v5.385l4.667-2.693-4.667-2.697zM16.489 21.287v-5.964l-5.167-2.979v5.959zM10.828 12.625l-4.667 2.697 4.667 2.693zM11.323 18.875v5.391l4.672-2.697zM26.677 0.177h-21.371c-2.921 0-5.307 2.359-5.307 5.239v21.111c0 2.885 2.385 5.239 5.307 5.239h14.631l-3.948-9.473-2.864 5.984h-7.819c-0.957 0-1.771-0.803-1.771-1.749v-21.111c0-0.943 0.813-1.744 1.771-1.744h21.371c0.959 0 1.771 0.801 1.771 1.744v21.111c0 0.947-0.812 1.749-1.771 1.749h-4.636l1.453 3.489h3.183c2.916 0 5.307-2.353 5.307-5.239v-21.111c0-2.88-2.391-5.239-5.307-5.239z"/>
</svg>
